X:4702
T:O\'iche Nollaig
T:Christmas Eve
O:england
R:slide
H:Also as a reel, #719
M:6/8
K:D
a2g|:f2A d2f|e2d B2g|f2A d2f|gfg a2g|
f2A d2f|e2d B2c|d2B BAG|1 F2A D2g:|2 F2A D3||
~a3 a2f|d2e f2a|g2f e2d|B3 A3|
~a3 a2f|d2e f2d|e2d c2e|a3 f2g|
~a3 a2f|d2e f2a|g2f e2d|B3 A3|
~a3 a2f|d2e f2d|e2d c2e|a3||


